X: 7102
T: Christmas Day Ida Moarnin'
R: jig
M: 6/8
K: Dmajor
~f2d fa2|e2d cA2|B2c d2c|BG2 G3|
e2f g2f|~e2d ~c2A|B2d cde|1 d3 a2g:|2 d3 d3||
|:e3 (4edef|g3 ~B3|A2A AA2|B2c dB2|
e3 (4edef|g3 ~B3|A2e dB2|1 A3 A3:|2 A3 a2g||

